appleicloud.svg

<svg viewBox="0 0 24 24" xmlns="http://www.w3.org/2000/svg"><defs><linearGradient gradientTransform="matrix(0.0234191 0 0 0.0234191 26.6233 -34.6722)" gradientUnits="userSpaceOnUse" id="LinearGradient" x1="-108.903" x2="-1137.2" y1="2124.83" y2="2110.65"><stop offset="0" stop-color="#3e82f4"/><stop offset="1" stop-color="#93dcf7"/></linearGradient></defs><path d="M13.762 4.28949C11.4091 4.29425 9.24184 5.56814 8.09317 7.62159C7.60758 7.38512 7.07468 7.26187 6.53457 7.26111C4.78624 7.26571 3.29826 8.53532 3.01855 10.2611C1.19017 11.0267 0.000108995 12.8151-7.77156e-16 14.7973C0.00262619 17.5125 2.20518 19.7118 4.92039 19.7105C5.12674 19.7086 5.33276 19.6938 5.53724 19.6661L19.2089 19.6661C19.2807 19.6712 19.3526 19.6747 19.4246 19.6765C19.4932 19.6746 19.5617 19.6711 19.6301 19.6661L19.9575 19.6661L19.9575 19.6417C22.2615 19.3692 23.9984 17.408 24 15.077L24 15.0682C23.9947 12.862 22.4309 10.9704 20.2734 10.5602C20.1444 7.05814 17.2664 4.2866 13.762 4.28949Z" fill="url(#LinearGradient)"/></svg>

<svg viewBox="0 0 24 24" xmlns="http://www.w3.org/2000/svg"><defs><linearGradient gradientTransform="matrix(.02342 0 0 .02342 26.623 -34.672)" gradientUnits="userSpaceOnUse" id="a" x1="-108.903" x2="-1137.2" y1="2124.83" y2="2110.65"><stop offset="0" stop-color="#3e82f4"/><stop offset="1" stop-color="#93dcf7"/></linearGradient></defs><path d="M13.762 4.29a6.51 6.51 0 0 0-5.669 3.332 3.571 3.571 0 0 0-1.558-.36 3.571 3.571 0 0 0-3.516 3A4.918 4.918 0 0 0 0 14.796a4.918 4.918 0 0 0 4.92 4.913c.207-.001.413-.016.617-.044H19.21c.072.005.144.009.216.01.068-.001.137-.005.205-.01h.328v-.024A4.592 4.592 0 0 0 24 15.077v-.009a4.594 4.594 0 0 0-3.727-4.508 6.51 6.51 0 0 0-6.511-6.27Z" fill="url(#a)"/></svg>
